pen up
right 90
forward 70
left 90
pen down
forward 200
right 90
forward 20
right 90
forward 90
pen up
forward 20
pen down
forward 90
right 90
forward 20
pen up
forward 10
right 90
forward 140
left 90
pen down
forward 60
right 90
forward 20
right 90
forward 60
pen up
forward 100
right 180
pen down
forward 60
left 90
forward 20
left 90
forward 60
pen up


