forward 50
left 90
forward 10
right 150
forward 65
left 60
forward 30
left 90
forward 10
right 90
forward 10
right 90
forward 10
left 90
forward 10
right 90
forward 10
right 90
forward 10
left 90
forward 10
right 90
forward 10
right 90
forward 10
left 90
forward 30
left 60
forward 65
right 150
forward 10
left 90
forward 50
right 90
forward 40
right 90
forward 40
left 90
forward 20
left 90
forward 40
right 90
forward 40




